X: 27
T:The Wearin' of the Green
Z:Jack Campin  *  May 2000  *  http://www.campin.me.uk/
M:2/4
L:1/8
K:G
G/A/|BB BB|Bd d>B|BA AA|A3 d  |ec g>f|ed BG |AG GG|G3    :|
g/f/|ee dB|dd G>A|BA Bc|B2 g>f|ee dB |dd G>B|AG FE|D3 G/A/|
     BB BB|Bd dB |BA AA|A3 d  |ec g>f|ed BG |AG GG|G3    ||

